X:1
T:This Is Like Heaven to Me
T:This Is Like Heaven to Me
T:J. E. French
T:J. E. French, 1903
T:Public Domain Courtesy of the Cyber Hymnal™
T:Public Domain Courtesy of the Cyber Hymnal™
C:J. E. French
Z:Public Domain
Z:Courtesy of the Cyber Hymnal™
%%score ( 1 2 ) ( 3 4 )
L:1/8
Q:1/4=100
M:6/8
K:F
V:1 treble 
V:2 treble 
V:3 bass 
V:4 bass 
V:1
 F | [FA]>[FA][FA] [FA][FB][FA] | [FA][EG]>[EG] [EG]2 C | [EG]>[EG][EG] [EG][FA][GB] | %4
w: 1.~We|find ma- ny peo- ple who|can’t un- der- stand Why|we are so hap- py and|
w: 2.~So|when we are hap- py we|sing and we shout. Some|don’t un- der- stand us, I|
w: 3.~We’ve|heard the sweet mu- sic, the|heav- en- ly chord, From|glo- ry land o- ver the|
w: 4.~We’re|look- ing for Je- sus with|glo- ry to come; ’Tis|Je- sus who died on the|
 [FA]3- [FA]2 F | F[FA][Ac] [Ac]>[GB][FA] | [DG][DF][DF] [DF]2 [_DG] | [CA]>[CF][FA] [EG][DF][EG] | %8
w: free. * We’ve|crossed o- ver Jor- dan to|Ca- naan’s fair land, And|this is like Heav- en to|
w: see. * We’re|filled with the Spir- it, there|is- n’t a doubt, And|this is like Heav- en to|
w: sea; * A|soul thrill- ing mes- sage from|Je- sus, our Lord, And|this is like Heav- en to|
w: tree. * A|cloud of bright an- gels to|car- ry me home— O|that will be Heav- en to|
 [CF]3- [CF]2 ||"^Refrain" [Ac] | [Ac]>[GB][FA] [Ac]>[GB][FA] | [GB]3- [GB]2 [GB] | %12
w: me. *||||
w: me. *|1,2,3.~And|this is like Heav- en to|me, * Yes,|
w: me. *|4.~O|that will be Heav- en to|me. * Yes,|
w: me. *||||
 [GB]>[FA][EG] [GB]>[FA][EG] | [FA]3- [FA]2 [Ac] | [Ac]>[GB][FA] [FA][FB][Fc] | %15
w: |||
w: this is like Heav- en to|me. * I’ve|crossed o- ver Jor- dan to|
w: that will be Heav- en to|me. * A|cloud of bright an- gels to|
w: |||
 [DB]>[DF][DF] [DF]2 [_DG] | [CA]>[CF][FA] [EG][DF][EG] | F3- [CF]2 |] %18
w: |||
w: Ca- naan’s fair land, And|this is like Heav- en to|me. *|
w: car- ry me home— Yes,|that will be Heav- en to|me. *|
w: |||
V:2
 F | x6 | x5 C | x6 | x5 F | F x5 | x6 | x6 | x5 || x | x6 | x6 | x6 | x6 | x6 | x6 | x6 | %17
 C2 D x2 |] %18
V:3
 [F,A,] | [F,C]>[F,C][F,C] [F,C][F,D][F,C] | [C,C]3/2[C,C][C,C]/ [C,C]2 [C,C] | %3
 [C,C]>[C,C][C,C] [C,C][C,C][C,C] | [F,C]3- [F,C]2 [F,A,] | [F,A,][F,C][F,C] [F,,C]>[G,,C][A,,C] | %6
 [B,,B,][B,,B,][B,,B,] [B,,B,]2 [B,,F,] | [C,F,]>[C,A,][C,C] [C,B,][C,B,][C,B,] | %8
 [F,,A,]3- [F,,A,]2 || [F,C] | [F,C]>[F,C][F,C] [F,C]>[F,C][F,C] | [C,C]2 [G,C] [E,C]2 [C,C] | %12
 [C,C]>[C,C][C,C] [C,C]>[C,C][C,C] | [F,C]2 [F,C] [F,C]2 [F,C] | [F,C]>[F,C][F,C] F,[F,G,][F,A,] | %15
 [B,,B,]>[B,,B,][B,,B,] [B,,B,]2 [B,,F,] | [C,F,]>[C,A,][C,C] [C,B,][C,B,][C,B,] | %17
 A,2 B, [F,,A,]2 |] %18
V:4
 x | x6 | x6 | x6 | x6 | x6 | x6 | x6 | x5 || x | x6 | x6 | x6 | x6 | x3 F, x2 | x6 | x6 | %17
 F,,3- x2 |] %18

